src/svg/it-instagram.svg

<svg width="24px" height="24px" viewBox="0 0 24 24" version="1.1"
     xmlns="http://www.w3.org/2000/svg">
  <title>Logo Instagram</title>
  <g stroke="none" stroke-width="1">
    <g>
      <rect x="0" y="0" width="24" height="24"
            fill="none"></rect>
    </g>
    <path
      d="M12,4.62 L11.99,4.7 C9.59,4.7 9.35,4.7 8.35,4.7 C7.77995625,4.70963322 7.21552446,4.81440799 6.68,5.01 C6.30065314,5.1602507 5.95918341,5.39245011 5.68,5.69 C5.38245011,5.96918341 5.1502507,6.31065314 5,6.69 C4.80671863,7.22927344 4.70531026,7.7971603 4.7,8.37 C4.7,9.32 4.7,9.61 4.7,12.01 C4.7,14.41 4.7,14.65 4.7,15.65 C4.70963322,16.2200438 4.81440799,16.7844755 5.01,17.32 C5.1602507,17.6993469 5.39245011,18.0408166 5.69,18.32 C5.96918341,18.6175499 6.31065314,18.8497493 6.69,19 C7.22552446,19.195592 7.78995625,19.3003668 8.36,19.31 C9.31,19.36 9.6,19.36 12,19.36 C14.4,19.36 14.64,19.31 15.64,19.31 C16.2100438,19.3003668 16.7744755,19.195592 17.31,19 C18.0778469,18.6871088 18.6871088,18.0778469 19,17.31 C19.1932814,16.7707266 19.2946897,16.2028397 19.3,15.63 C19.35,14.68 19.35,14.39 19.35,11.99 C19.35,9.59 19.3,9.35 19.3,8.35 C19.2903668,7.77995625 19.185592,7.21552446 18.99,6.68 C18.8397493,6.30065314 18.6075499,5.95918341 18.31,5.68 C18.0308166,5.38245011 17.6893469,5.1502507 17.31,5 C16.7786177,4.78046628 16.214054,4.6520027 15.64,4.62 C14.69,4.62 14.4,4.62 12,4.62 Z M12,3 L12,3.05 C14.44,3.05 14.71,3.05 15.71,3.05 C16.4579435,3.07033476 17.1976003,3.21218676 17.9,3.47 C19.1239941,3.92989823 20.0971346,4.88488312 20.58,6.1 C20.8378132,6.80239966 20.9796652,7.54205652 21,8.29 C21,9.25 21.05,9.56 21.05,12 C21.05,14.44 21,14.71 21,15.71 C20.9691265,16.477625 20.810275,17.2347048 20.53,17.95 C20.0584237,19.1550486 19.1050486,20.1084237 17.9,20.58 C17.1976003,20.8378132 16.4579435,20.9796652 15.71,21 C14.75,21.05 14.44,21.05 12,21.05 C9.56,21.05 9.29,21 8.29,21 C7.53927407,20.9636554 6.79952963,20.8048975 6.1,20.53 C4.89495135,20.0584237 3.94157626,19.1050486 3.47,17.9 C3.21218676,17.1976003 3.07033476,16.4579435 3.05,15.71 C3.05,14.75 3.05,14.44 3.05,12 C3.05,9.56 3.05,9.29 3.05,8.29 C3.07033476,7.54205652 3.21218676,6.80239966 3.47,6.1 C3.92989823,4.87600588 4.88488312,3.90286538 6.1,3.42 C6.80239966,3.16218676 7.54205652,3.02033476 8.29,3 C9.25,3 9.56,3 12,3 Z M12,7.38 C13.2253002,7.38 14.4004153,7.8667486 15.2668333,8.73316667 C16.1332514,9.59958474 16.62,10.7746998 16.62,12 C16.62,14.5515555 14.5515555,16.62 12,16.62 C9.44844446,16.62 7.38,14.5515555 7.38,12 C7.38,9.44844446 9.44844446,7.38 12,7.38 Z M12,15 C12.7956495,15 13.5587112,14.6839295 14.1213203,14.1213203 C14.6839295,13.5587112 15,12.7956495 15,12 C15,10.3431458 13.6568542,9 12,9 C10.3431458,9 9,10.3431458 9,12 C9,13.6568542 10.3431458,15 12,15 Z M16.8,8.28 C16.2035325,8.28 15.72,7.79646753 15.72,7.2 C15.72,6.60353247 16.2035325,6.12 16.8,6.12 C17.3964675,6.12 17.88,6.60353247 17.88,7.2 C17.88,7.79646753 17.3964675,8.28 16.8,8.28 Z"
    ></path>
  </g>
</svg>

<?xml version="1.0" encoding="utf-8"?>
<!-- Generator: Adobe Illustrator 25.4.1, SVG Export Plug-In . SVG Version: 6.00 Build 0)  -->
<svg version="1.1" id="Livello_1" xmlns="http://www.w3.org/2000/svg" xmlns:xlink="http://www.w3.org/1999/xlink" x="0px" y="0px"
	 viewBox="0 0 24 24" style="enable-background:new 0 0 24 24;" xml:space="preserve">
<path d="M12,4.6L12,4.6C9.6,4.7,9.4,4.7,8.4,4.7C7.8,4.7,7.2,4.8,6.7,5C6.3,5.2,6,5.4,5.7,5.7C5.4,6,5.2,6.3,5,6.7
	C4.8,7.2,4.7,7.8,4.7,8.4c0,0.9,0,1.2,0,3.6s0,2.6,0,3.6c0,0.6,0.1,1.1,0.3,1.7c0.2,0.4,0.4,0.7,0.7,1c0.3,0.3,0.6,0.5,1,0.7
	c0.5,0.2,1.1,0.3,1.7,0.3c1,0.1,1.2,0.1,3.6,0.1s2.6-0.1,3.6-0.1c0.6,0,1.1-0.1,1.7-0.3c0.8-0.3,1.4-0.9,1.7-1.7
	c0.2-0.5,0.3-1.1,0.3-1.7c0.1-0.9,0.1-1.2,0.1-3.6s-0.1-2.6-0.1-3.6c0-0.6-0.1-1.1-0.3-1.7c-0.2-0.4-0.4-0.7-0.7-1
	c-0.3-0.3-0.6-0.5-1-0.7c-0.5-0.2-1.1-0.3-1.7-0.4C14.7,4.6,14.4,4.6,12,4.6z M12,3L12,3c2.4,0,2.7,0,3.7,0c0.7,0,1.5,0.2,2.2,0.4
	c1.2,0.5,2.2,1.4,2.7,2.6C20.8,6.8,21,7.5,21,8.3c0,1,0,1.3,0,3.7s0,2.7,0,3.7c0,0.8-0.2,1.5-0.5,2.2c-0.5,1.2-1.4,2.2-2.6,2.6
	c-0.7,0.3-1.4,0.4-2.2,0.4c-1,0-1.3,0-3.7,0s-2.7,0-3.7,0c-0.8,0-1.5-0.2-2.2-0.5c-1.2-0.5-2.2-1.4-2.6-2.6
	c-0.3-0.7-0.4-1.4-0.4-2.2c0-1,0-1.3,0-3.7s0-2.7,0-3.7c0-0.7,0.2-1.5,0.4-2.2c0.5-1.2,1.4-2.2,2.6-2.7C6.8,3.2,7.5,3,8.3,3
	C9.3,3,9.6,3,12,3z M12,7.4c1.2,0,2.4,0.5,3.3,1.4s1.4,2,1.4,3.3c0,2.6-2.1,4.6-4.6,4.6S7.4,14.6,7.4,12S9.4,7.4,12,7.4z M12,15
	c0.8,0,1.6-0.3,2.1-0.9c0.6-0.6,0.9-1.3,0.9-2.1c0-1.7-1.3-3-3-3s-3,1.3-3,3S10.3,15,12,15z M16.8,8.3c-0.6,0-1.1-0.5-1.1-1.1
	s0.5-1.1,1.1-1.1c0.6,0,1.1,0.5,1.1,1.1S17.4,8.3,16.8,8.3z"/>
</svg>
